X:174
T:Dalry House
R:Strathspey
B:The Athole Collection
M:C|
L:1/8
K:D
D>F A2 F>GA2|B/c/d A>F G<E E>F|D>FA2 F>GA2|B/c/d c>B A<FF:|
A|d<fe<c d>BA2|B/c/d A>F G>E E>c|d<fe<c d>BA2|B/c/d c>B A<F F>A|
(3dfd (3cec (3BdB (3AdA|(3GBG (3FdF G<E E>F|D/E/F/G/ A2 F>GA2|
B/c/d c>B A<F F>A||

